public/icons/cloudy-moon.svg

<?xml version="1.0" encoding="utf-8"?><!-- Uploaded to: SVG Repo, www.svgrepo.com, Generator: SVG Repo Mixer Tools -->
<svg width="800px" height="800px" viewBox="0 0 24 24" fill="none" xmlns="http://www.w3.org/2000/svg">
<path opacity="0.5" d="M12 22C17.5228 22 22 17.5228 22 12C22 11.5373 21.3065 11.4608 21.0672 11.8568C19.9289 13.7406 17.8615 15 15.5 15C11.9101 15 9 12.0899 9 8.5C9 6.13845 10.2594 4.07105 12.1432 2.93276C12.5392 2.69347 12.4627 2 12 2C6.47715 2 2 6.47715 2 12C2 17.5228 6.47715 22 12 22Z" fill="#1C274C"/>
<path d="M11.2857 22C13.3371 22 15 20.4198 15 18.4706C15 16.9257 13.9554 15.6126 12.5008 15.1344C12.2941 13.3711 10.7203 12 8.80952 12C6.75818 12 5.09524 13.5802 5.09524 15.5294C5.09524 15.9605 5.17659 16.3736 5.3255 16.7555C5.15087 16.723 4.97039 16.7059 4.78571 16.7059C3.24721 16.7059 2 17.891 2 19.3529C2 20.8149 3.24721 22 4.78571 22H11.2857Z" fill="#1C274C"/>
</svg>

<svg xmlns="http://www.w3.org/2000/svg" width="800" height="800" fill="none" viewBox="0 0 24 24"><path fill="#1C274C" d="M12 22a10 10 0 0 0 10-10c0-.46-.7-.54-.93-.14a6.5 6.5 0 1 1-8.93-8.93c.4-.24.32-.93-.14-.93a10 10 0 1 0 0 20Z" opacity=".5"/><path fill="#1C274C" d="M11.29 22A3.63 3.63 0 0 0 15 18.47a3.55 3.55 0 0 0-2.5-3.34A3.65 3.65 0 0 0 8.81 12a3.63 3.63 0 0 0-3.71 3.53c0 .43.08.84.23 1.23a2.95 2.95 0 0 0-.54-.05A2.72 2.72 0 0 0 2 19.35 2.72 2.72 0 0 0 4.79 22h6.5Z"/></svg>
